packages/katcn/src/icons/svg/arrow7-solid.svg

<svg width="24" height="25" viewBox="0 0 24 25" fill="none" xmlns="http://www.w3.org/2000/svg">
<path d="M21.4757 13.896L16.382 21.196C15.8826 21.896 14.9838 22.296 14.1848 22.296H10.3895C9.19101 22.296 8.49189 20.996 9.19101 19.996L12.0874 15.896H3.79775C2.799 15.896 2 15.096 2 14.096V10.496C2 9.49599 2.799 8.69599 3.79775 8.69599H12.0874L9.19101 4.59599C8.49189 3.59599 9.19101 2.29599 10.3895 2.29599H14.1848C15.0836 2.29599 15.8826 2.69599 16.382 3.49599L21.4757 10.796C22.1748 11.696 22.1748 12.896 21.4757 13.896Z" fill="black"/>
</svg>

<svg xmlns="http://www.w3.org/2000/svg" fill="none" viewBox="0 0 24 25"><path fill="#000" d="m21.476 13.896-5.094 7.3c-.5.7-1.398 1.1-2.197 1.1h-3.796c-1.198 0-1.897-1.3-1.198-2.3l2.896-4.1h-8.29c-.998 0-1.797-.8-1.797-1.8v-3.6c0-1 .799-1.8 1.798-1.8h8.29l-2.897-4.1c-.7-1 0-2.3 1.198-2.3h3.796c.899 0 1.698.4 2.197 1.2l5.094 7.3c.699.9.699 2.1 0 3.1"/></svg>
